X:30
T:Aunt Hessie's White Horse
C:South Africa
S:Colin Hume's website,  colinhume.com  - chords can also be printed below the stave.
Q:1/2=120
M:4/4
L:1/4
K:D
P:A
|: "D"DE FG | "D"A/AA/ AA | "A7"A/AA/ AA | "D"A/AA/ AA |\
"D"DE FG | "D"A/AA/ AA | "A7"AG FE | "D"D4 :|
P:B
"D"dd c=c | "G"B4 | "G"dd cB | "D"A4 | "D"AA BA | "A7"c3B | "A7"AG FE | "D"D3 |]

